X:1
T:Vergine gloriosa
T:Vergine gloriosa
T:Tomaso Cecchino
T:Source : Cant Spirituale a uno, due et tre voci + BC ---Venetia---G.Vincenti---1613. Editor : André Vierendeels (26/10/16).
T:Notes : Original clefs : C1, F4 Figures in BC are notatted inoriginal print
T:©
T:©
C:Tomaso Cecchino
Z:©
%%score 1 2
L:1/8
Q:1/4=97
M:4/4
K:C
V:1 treble nm="Soprano" snm="S"
V:2 bass nm="BC"
V:1
 G3 G G4 | A2 AA A2 B2 | c2 e2 d3 c/B/ | c3 B/A/ B2 G2 | z2 B2 A4 | A4 z2 d2 | A2 B2 c3 d | %7
w: Ver- gi- ne,|ver- gi- ne glo- ri-|osa'e lie- * * *|* * * * ta,|o quan-|to al-|le- gro'e fat- to'il|
 e2 B2 d4- | d2 B/A/G A4 | G8 :: G2 GG A2 F2 | E4 E4 | e2 dc d3 B | cd e4 A2 | B4 A4 | z2 A2 c4 | %16
w: tuo do- glio-|* so _ _ sta-|to.|Gior- no fe- li- ce|san- to,|quan- do ri- for- se'il|tuo fi- glio'l a-|ma- to,|deh fa,|
 z2 G2 FEFG | A2 E2 E3 F | D4 D4 | z2 D2 F4 | z2 A2 c4 | z BBc d2 A2 | A3 B G4 | G8 :| %24
w: deh fa ch'an- ch'io ri-|sor- ga dal pec-|ca- to,|dah fa,|deh fa|ch'an- ch'io ri- sor- ga|dal pec- ca-|to.|
V:2
 G,8 |"^#" D,4 D,2 G,,2 | C,4 B,,4 | A,,4 G,,4 |"^#""^BC" G,,4 D,4- | D,4 D,4 | D,2 G,,2 C,4 | %7
 C,2 G,2 ^F,4 | G,4 D,4 | G,,8 :: C,4 F,,4 |"^#" A,,8 | C,4 B,,4 | A,,B,,C,D, E,2 F,2 | E,4 A,,4 | %15
 D,4 A,,4 | C,4 D,4 |"^#" A,,8 | D,,8 | D,8 | D,4 C,D,E,F, | G,2 E,2 D,4- | D,4 G,,4 | G,,8 :| %24

